!!!COM: Mozart, Wolfgang Amadeus
!!!OTL: String Quartet No. 14 in G Major ("Spring")
!!!OMD: Menuetto
!!!OMV: 2
!!!SCT1: K<sup>1</sup> 387
!!!SCA: Chronologisch-thematisches Verzeichnis sämtlicher Tonwerke Wolfgang Amade Mozarts (L. von Köchel; 1862, 2/1905, 3/1937, 1947)
!!!SCT2: K<sup>6</sup> 387
!!!YOR: Breitkopf & Härtel Edition
!!!ENC: Frances Bennion
!!!CDT: 1756/1/27/-1791/12/5/
!!!OCY: Österreich
!!!YEC: Copyright (c) 1994, 2000 Center for Computer Assisted Research in the Humanities
!!!YEM: Rights to all derivative editions reserved.
!!!YEM: Refer to licensing agreement for further details.
!!!YEN: United States of America
**kern	**kern	**kern	**kern
*k[f#]	*k[f#]	*k[f#]	*k[f#]
*G:	*G:	*G:	*G:
*clefC	*clefF	*clefG	*clefG
*M3/4	*M3/4	*M3/4	*M3/4
2r	2r	2r	4gg
.	.	.	4dd
4G	4d	4dd	4r
=2	=2	=2	=2
2r	2r	2r	4dd
.	.	.	4b
4GG	4B	4g	4r
=3	=3	=3	=3
2.r	2.r	2.r	4b
.	.	.	4cc
.	.	.	4cc#
=4	=4	=4	=4
2.r	2.r	2.r	4dd
.	.	.	4dd#
.	.	.	4ee
=5	=5	=5	=5
2.r	2.r	2.r	4a
.	.	.	4b-
.	.	.	4b
=6	=6	=6	=6
2.r	2.r	2.r	4cc
.	.	.	4cc#
.	.	.	4dd
=7	=7	=7	=7
4G	2.B	2.r	[2.g
4F#	.	.	.
4F	.	.	.
=8	=8	=8	=8
4E	2c	[2.g	4g]
4E-	.	.	4cc
4D	4d	.	[4b
=9	=9	=9	=9
4C	2.e	4.g]	8b]
.	.	.	8a
4AA	.	.	8ee
.	.	8e	8cc
4C	.	8d	8b
.	.	8c	8a
=10	=10	=10	=10
4D	4d	8B	8g
.	.	8A	8f#
2r	2r	8b	8dd
.	.	8g	8b
.	.	8a	8cc
.	.	8f#	8a
=11	=11	=11	=11
2r	2r	2r	8ff#
.	.	.	8gg
.	.	.	4dd
4G	4d	4b	4r
=12	=12	=12	=12
2r	2r	2r	8cc#
.	.	.	8dd
.	.	.	4b
4GG	4B	4g	4r
=13	=13	=13	=13
2.r	2.r	4b	2.r
.	.	4cc	.
.	.	4cc#	.
=14	=14	=14	=14
2.r	4B	4dd	[2gg
.	4c	4dd#	.
.	4c#	4ee	8gg]
.	.	.	16aa
.	.	.	16gg
=15	=15	=15	=15
2.r	4d	4a	4ff#
.	2r	4b-	2r
.	.	4b	.
=16	=16	=16	=16
2.r	4A	4cc	[2ff
.	4B-	4cc#	.
.	4B	4dd	8ff]
.	.	.	16gg
.	.	.	16ff
=17	=17	=17	=17
4r	4c	4g	4ee
4A	4d	4cc	4ff#
4G	4e	4b	4gg
=18	=18	=18	=18
4F#	4f#	4a	4aa
4E	4g	4g	4bb
4D	4a	4f#	[4ccc
=19	=19	=19	=19
4G	2g	4dd	8ccc]
.	.	.	8bb
4r	.	8cc#	8aa
.	.	8b	8gg
4GG	4b	8a	8ff#
.	.	8g	8ee
=20	=20	=20	=20
4AA	8a	2f#	2dd
.	8a	.	.
4A	8g#	.	.
.	8a	.	.
4r	8g	4e	4cc#
.	8e	.	.
=21	=21	=21	=21
4D	2.d	8f#	2aa
.	.	8a	.
4F#	.	8d	.
.	.	8a	.
4D	.	8f#	8.dd
.	.	8a	.
.	.	.	16cc#
=22	=22	=22	=22
4A	8e	4g	4cc#
.	8a	.	.
2r	8g#	2r	2r
.	8a	.	.
.	8g	.	.
.	8f#	.	.
=23	=23	=23	=23
4AA	2e	8c#	2aa
.	.	8a	.
4C#	.	8A	.
.	.	8a	.
4AA	8.c#	8g	8.ee
.	.	8a	.
.	16d	.	16dd
=24	=24	=24	=24
4D	8d	4f#	4dd
.	8a	.	.
2r	8g#	2r	2r
.	8a	.	.
.	8g	.	.
.	8e	.	.
=25	=25	=25	=25
4D	2d	8f#	2aa
.	.	8a	.
4F#	.	8d	.
.	.	8a	.
4D	4A	8dd	8.ff#
.	.	8a	.
.	.	.	16ee
=26	=26	=26	=26
2.G	4G	2b	4ee
.	4B	.	4gg
.	4e	4cc#	4bb
=27	=27	=27	=27
4F#	4A	4dd	8bb
.	.	.	8aa
4G	4B	4b	8gg
.	.	.	8ff#
4A	4c#	4g	8ee
.	.	.	8ff#
=28	=28	=28	=28
4D	4d	4f#	4dd
4d	2r	2r	4r
4r	.	.	8.dd
.	.	.	16ee
=29	=29	=29	=29
4A#	4c#	4e	4ff#
4A#	4c#	4e	4ff#
4A#	4c#	4e	4ff#
=30	=30	=30	=30
4B	4B	4d	8ff#
.	.	.	8bb
2r	2r	2r	8aa#
.	.	.	8aa
.	.	.	8gg#
.	.	.	8gg
=31	=31	=31	=31
2.r	4A#	8ee	4ff#
.	.	8cc#	.
.	4A#	8ee	4ff#
.	.	8cc#	.
.	4A#	8ee	4ff#
.	.	8cc#	.
=32	=32	=32	=32
2.r	4B	4b	8ff#
.	.	.	8bb
.	2r	2r	8aa#
.	.	.	8aa
.	.	.	8gg#
.	.	.	8gg
=33	=33	=33	=33
4G#	8d	8b	8ff#
.	8B	8dd	8ee
4G#	8d	8b	4ee
.	8B	8dd	.
4G#	8d	8b	4ee
.	8B	8dd	.
=34	=34	=34	=34
2A	2e	2cc#	8ee
.	.	.	8bb
.	.	.	8aa
.	.	.	8gg#
4B	4d	4dd	8gg
.	.	.	8ff#
=35	=35	=35	=35
4G	4g	4b	8ff#
.	.	.	8ee
4A	4f#	4a	4dd
4AA	4e	4g	4cc#
=36	=36	=36	=36
4D	4d	8f#	4dd
.	.	8dd	.
2r	2r	8cc#	2r
.	.	8cc	.
.	.	8b	.
.	.	8b-	.
=37	=37	=37	=37
4AA	8c#	[2.a	8ee
.	8d	.	8ff#
4r	8e	.	8gg
.	8f#	.	8aa
4c#	8g	.	8bb
.	8f#	.	8aa
=38	=38	=38	=38
4d	8f#	4a]	4aa
.	8dd	.	.
2r	8cc#	2r	2r
.	8cc	.	.
.	8b	.	.
.	8b-	.	.
=39	=39	=39	=39
4A	[2.a	8c#	8a
.	.	8d	8b
4r	.	8e	8cc#
.	.	8f#	8dd
4AA	.	8g	8ee
.	.	8f#	8dd
=40	=40	=40	=40
4D	4a]	4f#	4dd
4d	2r	2r	2r
4r	.	.	.
=41	=41	=41	=41
4D	2r	2r	2r
4F#	.	.	.
4r	4a	4f#	4dd
=42	=42	=42	=42
4F#	2r	2r	2r
4A	.	.	.
4r	4a	4f#	4dd
=43	=43	=43	=43
4A	2.r	2.r	2.r
4d	.	.	.
4f#	.	.	.
=44	=44	=44	=44
[2.a	4c	2.r	2.r
.	4f#	.	.
.	4a	.	.
=45	=45	=45	=45
2.a_	[2.cc	4f#	2.r
.	.	4a	.
.	.	4cc	.
=46	=46	=46	=46
2.a_	2.cc]	[2.ff#	4cc
.	.	.	4ff#
.	.	.	4aa
=47	=47	=47	=47
2.a]	[2.b	2.ff#]	2.ddd#
=48	=48	=48	=48
4g	2.b]	4ee	4eee
4f#	.	4dd#	4aa
4e	.	4ee	4gg
=49	=49	=49	=49
4A	4a	4cc	4ff#
4r	4r	4r	4aa
4B	4f#	4a	4dd#
=50	=50	=50	=50
4E	4e	4g	4ee
4G	2r	2r	2r
4B	.	.	.
=51	=51	=51	=51
2.e	4g	4cc#	4ee
.	4cc#	4ee	4gg
.	4ee	4gg	4ccc#
=52	=52	=52	=52
4f#	2.a	4dd	4ddd
4c#	.	4ee	4gg
4d	.	4dd	4ff#
=53	=53	=53	=53
4G	4g	4b	4ee
4r	4r	4r	4gg
4A	4e	4g	4cc#
=54	=54	=54	=54
4D	4d	4f#	8dd
.	.	.	8cc#
2r	2r	2r	8dd
.	.	.	8cc#
.	.	.	8dd
.	.	.	8cc#
=55	=55	=55	=55
4G	4g	4b-	[2.dd
8.r	8.r	8.r	.
16F#	16a	16cc	.
4G	4g	4b-	.
=56	=56	=56	=56
4D	4f#	4a	8dd]
.	.	.	8c#
2r	2r	2r	8d
.	.	.	8c#
.	.	.	8d
.	.	.	8c#
=57	=57	=57	=57
4GG	4G	4B-	[2.d
8.r	8.r	8.r	.
16FF#	16A	16c	.
4GG	4G	4B-	.
=58	=58	=58	=58
4DD	4F#	4A	8d]
.	.	.	8cc#
2r	2r	2r	8dd
.	.	.	8cc#
.	.	.	8dd
.	.	.	8cc#
=59	=59	=59	=59
2.r	8r	8r	[2.dd
.	8f#	8a	.
.	8g	8b-	.
.	8f#	8a	.
.	8g	8b-	.
.	8f#	8a	.
=60	=60	=60	=60
[2.d	[2.g	[2.b-	8dd]
.	.	.	8dd#
.	.	.	8ee
.	.	.	8dd#
.	.	.	8ee
.	.	.	8dd#
=61	=61	=61	=61
2.d_	8g]	8b-]	[2.ee
.	8g#	8b	.
.	8a	8cc	.
.	8g#	8b	.
.	8a	8cc	.
.	8g#	8b	.
=62	=62	=62	=62
2.d]	2.a	2.cc	8ee]
.	.	.	8ff#
.	.	.	8gg
.	.	.	8ff#
.	.	.	8gg
.	.	.	8ff#
=63	=63	=63	=63
2r	2r	2r	4gg
.	.	.	4dd
4G	4g	4b	4r
=64	=64	=64	=64
2r	2r	2r	4dd
.	.	.	4b
4GG	4B	4g	4r
=65	=65	=65	=65
2.r	2.r	4b	2.r
.	.	4cc	.
.	.	4cc#	.
=66	=66	=66	=66
2.r	4B	4dd	[2gg
.	4c	4dd#	.
.	4c#	4ee	8gg]
.	.	.	16aa
.	.	.	16gg
=67	=67	=67	=67
2.r	4d	4a	4ff#
.	2r	4b-	2r
.	.	4b	.
=68	=68	=68	=68
[2F	2.r	4cc	4A
.	.	4cc#	4B-
8F]	.	4dd	4B
16G	.	.	.
16F	.	.	.
=69	=69	=69	=69
4E	4g	4g	4c
2r	4a-	2r	2r
.	4a	.	.
=70	=70	=70	=70
[2E-	4b-	[2gg	2.r
.	4b	.	.
8E-]	4cc	8gg]	.
16F	.	16aa	.
16E-	.	16gg	.
=71	=71	=71	=71
4D	[2a	4ff#	[2ccc
4E	.	4ee	.
4F#	8a]	[4dd	8ccc]
.	16b	.	16ddd
.	16a	.	16ccc
=72	=72	=72	=72
4G	4g	4dd]	4bb
4D#	4a	4cc	4ff#
4E	4g	4b	4gg
=73	=73	=73	=73
4C	2G	4A	4ee
4D	.	4B	4dd
4DD	4A	4c	4f#
=74	=74	=74	=74
4GG	2.G	8B	2dd
.	.	8d	.
4BB	.	8G	.
.	.	8d	.
4GG	.	8B	8.g
.	.	8d	.
.	.	.	16f#
=75	=75	=75	=75
4D	8A	4c	4f#
.	8d	.	.
2r	8c#	2r	2r
.	8d	.	.
.	8c	.	.
.	8B	.	.
=76	=76	=76	=76
4DD	2A	8c	2dd
.	.	8d	.
4FF#	.	8A	.
.	.	8d	.
4DD	8.F#	8c	8.a
.	.	8d	.
.	16G	.	16g
=77	=77	=77	=77
4GG	8G	4B	4g
.	8d	.	.
2r	8c#	2r	2r
.	8d	.	.
.	8c	.	.
.	8A	.	.
=78	=78	=78	=78
4GG	8B	2dd	2ddd
.	8g	.	.
4BB	8G	.	.
.	8g	.	.
4GG	8d	8.b	8.bb
.	8g	.	.
.	.	16a	16aa
=79	=79	=79	=79
2.C	2e	4a	4aa
.	.	4cc	4ccc
.	4f#	4ee	4eee
=80	=80	=80	=80
4BB	4g	8ee	8eee
.	.	8dd	8ddd
4C	4e	8cc	8ccc
.	.	8b	8bb
4D	4f# 4c	8a	8aa
.	.	8b	8bb
=81	=81	=81	=81
4GG	4g 4B	4g	4gg
4G	4r	2r	2r
4r	8.g	.	.
.	16a	.	.
=82	=82	=82	=82
4D#	4b	8a	2.r
.	.	8f#	.
4D#	4b	8a	.
.	.	8f#	.
4D#	4b	8a	.
.	.	8f#	.
=83	=83	=83	=83
4E	8b	4g	2.r
.	8ee	.	.
2r	8dd#	2r	.
.	8dd	.	.
.	8cc#	.	.
.	8cc	.	.
=84	=84	=84	=84
4d#	4b	4b	8aa
.	.	.	8ff#
4d#	2r	4b	8aa
.	.	.	8ff#
4d#	.	4b	8aa
.	.	.	8ff#
=85	=85	=85	=85
4e	2.r	8b	4gg
.	.	8ee	.
2r	.	8dd#	2r
.	.	8dd	.
.	.	8cc#	.
.	.	8cc	.
=86	=86	=86	=86
4C#	8E	8b	8b
.	8G	8a	8a
4C#	8E	8g	4a
.	8G	8e	.
4C#	8E	8g	4a
.	8G	8e	.
=87	=87	=87	=87
2D	4F#	4d	8a
.	.	.	8ee
.	4A	4f#	8dd
.	.	.	8cc#
4E	4G	4g	8cc
.	.	.	8b
=88	=88	=88	=88
4C	4c	4e	8b
.	.	.	8a
4D	4B	4d	4g
4DD	4A	4c	4f#
=89	=89	=89	=89
4GG	4G	4B	8g
.	.	.	8gg
2r	2r	2r	8ff#
.	.	.	8ff
.	.	.	8ee
.	.	.	8ee-
=90	=90	=90	=90
4d	8f#	8a	[2.dd
.	8g	8b	.
4r	8a	8cc	.
.	8b	8dd	.
4F#	8cc	8ee	.
.	8b	8dd	.
=91	=91	=91	=91
4G	8b	4dd	4dd]
.	8g	.	.
2r	8f#	2r	2r
.	8f	.	.
.	8e	.	.
.	8e-	.	.
=92	=92	=92	=92
4D	4d	4f#	8r
.	.	.	8dd
4r	4c#	4g	8ee-
.	.	.	8ee
4DD	4c	4a	8ff
.	.	.	8ff#
=93	=93	=93	=93
4GG	4B	4g	4gg
4G	2r	2r	2r
4r	.	.	.
=94	=94	=94	=94
4GG	4G	4G	4G
4r	4r	4r	4r
4BB-	8.B-	8.B-	8.B-
.	32A	32A	32A
.	32B-	32B-	32B-
=95	=95	=95	=95
4D	4d	4d	4d
4r	4r	4r	4r
4G	8.g	8.g	8.g
.	32f#	32f#	32f#
.	32g	32g	32g
=96	=96	=96	=96
4B-	4b-	4b-	4b-
4r	4r	4r	4r
4G	4G	4g	4g
=97	=97	=97	=97
4c#	4c#	4cc#	4cc#
4d	4d	4dd	4dd
4r	4r	4r	4r
=98	=98	=98	=98
2.r	2.r	2.r	4c
.	.	.	4ee-
.	.	.	4ee-
=99	=99	=99	=99
2D	2A	2c	4g
.	.	.	4f#
4E	4G	4c#	4g
=100	=100	=100	=100
2.F#	4F#	4d	4a
.	4A	4f#	4dd
.	4d	4a	4cc
=101	=101	=101	=101
4G	4d	4g	4b-
4D	4d	4f#	4a
4r	4r	4r	4r
=102	=102	=102	=102
4GG	4G	4G	4G
4r	4r	4r	4r
4BB-	8.B-	8.B-	8.B-
.	32A	32A	32A
.	32B-	32B-	32B-
=103	=103	=103	=103
4D	4d	4d	4d
4r	4r	4r	4r
4G	8.g	8.g	8.g
.	32f#	32f#	32f#
.	32g	32g	32g
=104	=104	=104	=104
4B-	4b-	4b-	4b-
4r	4r	4r	4r
4G	4G	4g	4g
=105	=105	=105	=105
4c#	4c#	4cc#	4cc#
4d	4d	4dd	4dd
8.r	8.r	8.r	8.r
16D	16D	16d	16d
=106	=106	=106	=106
4d	4d	4dd	4dd
4e-	4e-	4ee-	4ee-
4r	4r	4r	4r
=107	=107	=107	=107
2.E-	2.G	[2.e-	4r
.	.	.	4ee-
.	.	.	4ee-
=108	=108	=108	=108
2.F	2.A	2.e-_	4r
.	.	.	8.ee-
.	.	.	16dd
.	.	.	4ee-
=109	=109	=109	=109
2.G	2.B-	2.e-]	4r
.	.	.	4ee-
.	.	.	4ee-
=110	=110	=110	=110
2.A	2.c	2.f	4r
.	.	.	8.ee-
.	.	.	16dd
.	.	.	4ee-
=111	=111	=111	=111
2.B-	2.d	2.g	4r
.	.	.	4ee-
.	.	.	4gg
=112	=112	=112	=112
2c	2e-	2a	4ff
.	.	.	4ee-
4d	4f	4b-	4dd
=113	=113	=113	=113
4E-	4e-	4g	4cc
4F	4d	4f	4b-
4FF	4c	4e-	4a
=114	=114	=114	=114
4BB-	4B-	4d	4b-
2r	2r	2r	4dd
.	.	.	4ff
=115	=115	=115	=115
2.r	4B-	[2.ff [2.dd	2.gg#
.	4d	.	.
.	4f	.	.
=116	=116	=116	=116
4AA	4d	4ff] 4dd]	4aa
4D	2r	2r	2r
4F	.	.	.
=117	=117	=117	=117
2.A	2.e	2.g	2.cc#
=118	=118	=118	=118
4D	4d	4f	4dd
2r	2r	2r	2r
=119	=119	=119	=119
2.r	2.r	2.r	4ff
.	.	.	4ee-
.	.	.	4dd
=120	=120	=120	=120
2.r	4f	4a-	2cc
.	4e-	4g	.
.	4d	4f	4b
=121	=121	=121	=121
2.r	4c	4e-	4aa-
.	4B	4d	4gg
.	[4d	[4b	[4ff
=122	=122	=122	=122
4C	4d]	4b]	4ff]
4AA-	4c	4cc	4ee-
4GG	4r	4r	4r
=123	=123	=123	=123
4FF#	4r	4r	4r
2r	4F#	4d	4dd
.	4D	4f#	4a
=124	=124	=124	=124
4G	4d	4a	4cc
4E-	4e-	4g	4b-
4D	4r	4r	4r
=125	=125	=125	=125
4C#	4r	4r	4r
4r	4c#	4b-	4gg
4c#	4e	4g	4b-
=126	=126	=126	=126
4d	4d	4g	4b-
4D	4d	4f#	4a
4r	4r	4r	4r
=127	=127	=127	=127
4GG	4G	4G	4G
4r	4r	4r	4r
4BB-	8.B-	8.B-	8.B-
.	32A	32A	32A
.	32B-	32B-	32B-
=128	=128	=128	=128
4D	4d	4d	4d
4r	4r	4r	4r
4G	8.g	8.g	8.g
.	32f#	32f#	32f#
.	32g	32g	32g
=129	=129	=129	=129
4B-	4b-	4b-	4b-
4r	4r	4r	4r
4G	4G	4g	4g
=130	=130	=130	=130
4c#	4c#	4cc#	4cc#
4d	4d	4dd	4dd
8.r	8.r	8.r	8.r
16D	16D	16d	16d
=131	=131	=131	=131
4B	4B	4b	4b
4c	4c	4cc	4cc
4r	4r	4r	4r
=132	=132	=132	=132
2.CC	2.E	[2.c	4r
.	.	.	4cc
.	.	.	4cc
=133	=133	=133	=133
2.DD	2.F#	2.c_	4r
.	.	.	8.cc
.	.	.	16b
.	.	.	4cc
=134	=134	=134	=134
2.EE-	2.G	2.c_	4r
.	.	.	4ccc
.	.	.	4cc
=135	=135	=135	=135
2.EE	2.B-	2.c_	4r
.	.	.	8.cc
.	.	.	16b
.	.	.	4cc
=136	=136	=136	=136
2.FF	[2.A	2.c]	4r
.	.	.	4ccc
.	.	.	4cc
=137	=137	=137	=137
2.FF#	2.A]	[2.d	4r
.	.	.	4ccc
.	.	.	4cc
=138	=138	=138	=138
2.GG	2.B-	4d]	4r
.	.	[2e	4ccc
.	.	.	4cc
=139	=139	=139	=139
2.AA-	[2.c	4e]	4r
.	.	[2f	4ddd
.	.	.	4dd
=140	=140	=140	=140
2.AA	2.c]	4f]	4r
.	.	2f#	4eee-
.	.	.	4ee-
=141	=141	=141	=141
4BB-	4d	4g	4dd
4D	4A	4f#	4cc
4E-	4G	4g	4b-
=142	=142	=142	=142
4C	4c	4e-	4a
4D	4B-	4d	4g
4DD	4A	4c	4f#
=143	=143	=143	=143
4GG	4G	4B-	4g
2r	2r	2r	4b-
.	.	.	4dd
=144	=144	=144	=144
2.r	4e-	2.cc#	2.gg
.	4g	.	.
.	4b-	.	.
=145	=145	=145	=145
4DD	4b-	4dd	4ddd
4GG	2r	2r	2r
4BB-	.	.	.
=146	=146	=146	=146
2.D	2.A	2.c	2.f#
=147	=147	=147	=147
4GG	4G	4B-	4g
2r	2r	2r	2r
==	==	==	==
*-	*-	*-	*-
!!!RWG1: This file contains only pitch and duration data.
!!!RWG2: Transposing instruments are not transposed.
!!!RWG3: Spines may have incompatible meters.
!!!RWG4: Durations of rests and tied notes may be interpreted.
!!!RWG: Key is interpreted using the Humdrum key tool.
!!!AFT: stage1
!!!END: 1997/04/15
!!!KEY: 3393006665
!!!EMD: Converted from MuseData to Humdrum Dec 16, 2000, by Andreas Kornstaedt using muse2kern.
!!!EMD: Manual editing by Craig Sapp, Nov 2001
